X:1
T:Lamm Gottes
T:Lamm Gottes
T:Martin S. MӮller
T:Liturgie
C:Martin S. MӮller
Z:Liturgie
L:1/8
Q:1/4=95
M:4/4
K:F
V:1 treble nm="Piano" snm="Pno."
V:1
"D" D8 | F2 D2 z4 |"B" F8 |"F" G2 A2 z4 |"C" z2 G2 G2 F2 |"G" G6 F2 |"B" D2 F2 A2 (G2 |"C" G4) z4 | %8
w: 1.+2.Lamm|Got- tes,|Lamm|Got- tes,|du nimmst hin-|weg die|SӮn- de der Welt.||
"F" z2 A2 A2 A2 |"C" G2 A2 G2 (F2 |"G" F4) F2 (G2 |"B" G2) F2 E2 D2 |"D" F4 F2 (E2 | %13
w: Er- barm dich|un- ser o Herr,|_ er- bar|_ me dich, o|Herr, o Herr,|
"C" E4) E2 (D2 |"G" D4) z4 |"B""C" z8 :|"D" D8 | F2 D2 z4 |"B" F8 |"F" G2 A2 z4 |"C" z2 G2 G2 F2 | %21
w: _ o Herr!|_||3.Lamm|Got- tes,|Lamm|Got- tes,|du nimmst hin-|
"G" G6 F2 |"B" D2 F2 A2 (G2 |"C" G4) z4 |"F" z2 A2 A2 A2 |"C" G2 A2 G2 (F2 |"G" F4) F2 (G2 | %27
w: weg die|SӮn- de der Welt.|_|Gib uns den|Frie- den o Herr,|_ gib uns|
"B" G2) F2 E2 D2 |"D" F8 |"C" E8 |:"G" z4 F2 F2 |"B" G2 F2"C" E2 D2 |1"D" D8 ||"C" z8 :|3"D" D8 |] %35
w: _ doch dei- nen|Frie-|den,|gib uns|dei- nen Frie _|den!||den!|

